mobile/apps/auth/assets/custom-icons/icons/questrade.svg

<svg xmlns="http://www.w3.org/2000/svg" xmlns:xlink="http://www.w3.org/1999/xlink" class="hidden-seo-lg hidden-seo-md" width="42" height="32" viewBox="0 0 42 32" fill="none">
<path d="M15.0525 17.1659C17.9688 11.7957 21.8099 7.73079 25.3006 5.84378L21.795 0.324447C21.5191 -0.108149 21.079 -0.108149 20.818 0.324447L1.63456 30.5614C1.35859 30.994 1.58981 31.1208 2.08953 31.1208H11.2412C11.0995 27.2125 12.2705 22.2601 15.0525 17.1659Z" fill="#3EA448"></path>
<path d="M26.4945 9.28111C24.615 8.25183 20.5575 12.0632 17.4324 17.7988C14.3147 23.527 13.3078 29.009 15.1873 30.0457C16.5523 30.7841 18.8495 28.8374 21.3034 25.6377V18.3134C21.3034 17.5527 21.7807 17.135 22.1387 17.7988L24.1824 21.6623C24.2122 21.6176 24.2271 21.5803 24.2569 21.5355C27.3821 15.7999 28.3815 10.3179 26.4945 9.28111Z" fill="#3EA448"></path>
<path d="M40.9931 30.5612L33.2512 18.3516C32.5799 20.6488 31.5879 23.0803 30.2752 25.4894C29.589 26.7424 28.8581 27.9209 28.0898 29.0322L29.5517 31.1206H40.5382C41.0379 31.1206 41.2691 30.9938 40.9931 30.5612Z" fill="#3EA448"></path>
</svg>

<svg xmlns="http://www.w3.org/2000/svg" fill="none" class="hidden-seo-lg hidden-seo-md" viewBox="0 0 42 32"><path fill="#3EA448" d="M15.053 17.166C17.968 11.796 21.81 7.73 25.3 5.844L21.795.324c-.276-.432-.716-.432-.977 0L1.635 30.561c-.276.433-.045.56.455.56h9.151c-.141-3.909 1.03-8.86 3.812-13.955Z"/><path fill="#3EA448" d="M26.494 9.281c-1.879-1.03-5.936 2.782-9.062 8.518-3.117 5.728-4.124 11.21-2.245 12.247 1.365.738 3.662-1.209 6.116-4.408v-7.325c0-.76.478-1.178.836-.514l2.043 3.863c.03-.044.045-.082.075-.127 3.125-5.735 4.124-11.217 2.237-12.254ZM40.993 30.561l-7.742-12.21c-.671 2.298-1.663 4.73-2.976 7.138a40.054 40.054 0 0 1-2.185 3.543l1.462 2.089h10.986c.5 0 .731-.127.455-.56Z"/></svg>
